X:1
T:Title
%%score { ( 1 3 ) | 2 }
L:1/8
M:4/4
K:D
V:1 treble nm="Grand Piano"
V:3 treble 
V:2 bass 
V:1
 z4 z2[Q:1/4=96] F2 | F3 F =F^FGF | [CE]6 [EG]2 | [EG]3 [EG] [^DF][EG][FA][EG] |[M:3/4] F6 | %5
[M:1/4] F2 |[M:4/4] A3 A BA[EG][DF] | [CE]4- [CE][CA][CA][CA] | A2 ^G2 F2 G2 | %9
[M:5/8] [CA]- [CA]3 z |[M:3/8] ABc |[M:4/4] d4 z4 | B4 z4 | e4 z4 | c4 z4 | d4 z4 | B4 z4 | %17
 Ad z2 [DF]2 [CE]2 |[M:3/4] [A,D]6 |] %19
V:2
 z4 z2 [D,A,D]2 | [D,A,D]3 [D,A,D] [D,^G,D][D,A,D][D,B,D][D,A,D] | [A,,A,]6 [A,,A,]2 | %3
 [A,,A,]3 [A,,A,] [A,,A,][A,,A,][A,,A,][A,,A,] |[M:3/4] [D,A,D]6 |[M:1/4] [D,A,D]2 | %6
[M:4/4] [D,F,D]3 [D,F,D] [D,G,D][D,F,D][C,A,][D,A,] | [A,,A,]4- [A,,A,][A,,A,][A,,A,][A,,A,] | %8
 [E,B,D]2 [E,B,D]2 [E,A,D]2 [E,B,D]2 |[M:5/8] [A,,A,]- [A,,A,]3 z |[M:3/8] z3 | %11
[M:4/4] z [D,A,][D,B,][D,B,] .[D,A,]2 z2 | z [G,D][G,D][G,D] .[G,D]2 z2 | %13
 z [E,B,][E,B,][E,B,] .[E,B,]2 z2 | z [A,E][A,E][A,E] .[A,E]2 z2 | %15
 z [D,A,][D,B,][D,B,] .[D,A,]2 z2 | z [G,D][F,^D][F,D] [E,E][K:treble][^G,B,=F][G,CF][G,DF] | %17
 [A,DF][A,F] z2[K:bass] [A,,A,]2 [A,,G,]2 |[M:3/4] [D,F,]6 |] %19
V:3
 x8 | x8 | x8 | x8 |[M:3/4] x6 |[M:1/4] x2 |[M:4/4] x8 | x8 | x8 |[M:5/8] x5 |[M:3/8] x3 | %11
[M:4/4] z FGG FAGF | z GGG GB^AB | z ^GGG GBcd | z GGG GABc | z FGG FAGF | z GAA GdcB | x8 | %18
[M:3/4] x6 |] %19

